X:9669
T:Little Black Hen
C:Jim Magill
R:reel
M:4/4
L:1/8
K:C
ef|g^fga g^fga|g2e2 c2Bc|d2G2 A2B2|cBcd e2ef|
g^fga g^fga|g2e2 c2Bc|d2G2 A2B2|c3c c2:|
K:G
|:Bc|dedc Bdef|g2B2 d2dB|A2AB c2BA|GABc d2Bc|
dedc Bdef|g2B2 d2dB|A2AB cdef|gagf g2:|
